X: 447
T: Bu Nihavend-i Kebîri
C: Ahmet Avni Konuk
O: Turkey
F: http://compmusic.upf.edu/node/140
N: nihavendikebir--kupe--devrirevanihindi----ahmet_avni_konuk
N: makam= nihavendikebir
N: form= kupe
N: usul= devrirevanihindi = 14/8
M: 14/8
L: 1/16
K: C _B _e  
Q: 1/4=102
%%MIDI tuningsystem comma53
d4 d2d4=e2 {f}edd4d2 d2d2 dedc  | \
w:  Bu  Ni ha *  *  *  *  vend_  | 
c4 c2c2 e2d2 c2B4A2 AGG^F G2z2  | 
w:  i  Ke bî *  *  *  ri   | 
d4 d2d4=e4d2 c2d2 c2d2 c2_3/4B2  | \
w:  duy ma dık  *  hay  | 
g2^3/4f2 g2g4gf f=ed2 e=fe2 d2c2 d4  | 
w:  li  *  *  *  *  *  *  *  za *  *  man    | 
d4 =e2^3/4f8f2 ^3/4e2f2 agfe f2z2  | \
w:  Sey ri ni  gös  | 
g4 a2a2 a2ab agg2 a2g2 gffe d2z2  | 
w:  ter  bi ze  *  *  *  *  *  ey   | 
d4 d2d2 d2de dcc2 d2c2 cBBA G4  | \
w:  nây_ ü  tan *  *  *  *  *  bûr_  | 
ABAB AGAc BAAG G^FG2 F2AG G6z2  | 
w:  ü  *  *  *  *  *  *  *  *  *  ke *  *  *  man    | 
|


